X:1
T:Always With Me
T:Always With Me
T:Spirited Away
T:Arr. Exploring with Dora 
C:Arr. Exploring with Dora
%%score 1 2 3 4
L:1/8
Q:1/8=100
M:6/8
K:F
V:1 treble nm="Piano" snm="Pno."
V:2 treble nm="Piano" snm="Pno."
V:3 treble nm="Piano" snm="Pno."
V:4 bass nm="Piano" snm="Pno."
V:1
 z6 | z4 z F/G/ | A/F<cA/ GcG | FDE/F/ C2 C | DEF/G/ CFG/A/ | BB/A/G/F/ G2 F/G/ | A/F<cA/ GcG | %7
 F/D/DE/F/ C2 C/C/ | DEF/G/ CFG/A/ | BB/A/G/F/ F3- | F3 z A/B/ z | ccc cc/d/c/B/ | AAA AA/B/A/G/ | %13
 FFF/E/ DEE/F/ | G!<(!G/A/G/A/!<)!!>(! G2 z!>)! | z6 | z6 | z6 | z6 | z6 | z6 | z6 | z6 | z6 | z6 | %25
 z6 | z6 | z6 | z6 | z6 | z6 | z6 | z6 | z6 | z6 | z6 | z6 | z6 | z6 | z6 | z6 | z6 | z6 | z6 | %44
 z6 | z6 | z6 | z6 | z6 | z6 | z6 | z6 | z6 | z6 | z6 | z6 | z6 | z6 | z6 | z6 |] %60
V:2
 z FA z FA | z FA F2 z | z A z z G z | z A z A2 z | z B z z A z | z G z c2 z | z AA z BB | %7
 z AA z A2 | B3 A3 | B3 A/B/c/d/c/B/ | A3 z F/G/ z | AGF EE/E/E/E/ | FED C3 | DDD/D/ B,CC/D/ | %14
 G!<(!G/A/G/A/!<)! G2 A/B/ | ccc cc/d/c/B/ | AAA A/B/A/G/F/E/ | DD/E/F/G/ CFG/A/ | G>GG/F/ F3 | %19
 z6 | z6 | z6 | z6 | z6 | z6 | z6 | z6 | z6 | z6 | z6 | z6 | z6 | z6 | z6 | z6 | z6 | z6 | z6 | %38
 z6 | z6 | z6 | z6 | z6 | z6 | z6 | z6 | z6 | z6 | z6 | z6 | z6 | z6 | z6 | z6 | z6 | z6 | z6 | %57
 z6 | z6 | z6 |] %60
V:3
 z C2 z C2 | z C2 C2 z | z C2 z E2 | z F2 C2 z | z G2 z F2 | z D2 E2 z | z FF z EE | z FF z E2 | %8
 F3 F3 | D3 C3- | C3 z D/E/ z | FFF CC/C/C/C/ | DDD A,3 | D3 B,3 | G,3 C3 | z6 | z6 | z6 | z6 | %19
 z6 | z6 | z6 | z6 | z6 | z6 | z6 | z6 | z6 | z6 | z6 | z6 | z6 | z6 | z6 | z6 | z6 | z6 | z6 | %38
 z6 | z6 | z6 | z6 | z6 | z6 | z6 | z6 | z6 | z6 | z6 | z6 | z6 | z6 | z6 | z6 | z6 | z6 | z6 | %57
 z6 | z6 | z6 |] %60
V:4
 F,,3 F,3 | F,3 F,3 | F,3 C,3 | D,3 A,,3 | B,,3 F,,3 | B,,3 C,3 | F,,3 C,3 | D,3 A,,3 | B,,3 A,,3 | %9
 G,,3 F,,3- | F,,3 z2 z | F,3 C,3 | D,3 A,,3 | B,,B,,B,,/B,,/ F,,F,,F,,/F,,/ | z6 | z6 | z6 | z6 | %18
 z6 | z6 | z6 | z6 | z6 | z6 | z6 | z6 | z6 | z6 | z6 | z6 | z6 | z6 | z6 | z6 | z6 | z6 | z6 | %37
 z6 | z6 | z6 | z6 | z6 | z6 | z6 | z6 | z6 | z6 | z6 | z6 | z6 | z6 | z6 | z6 | z6 | z6 | z6 | %56
 z6 | z6 | z6 | z6 |] %60

